X: 1
T: Sl\"angpolska fr\aan N\"arke
O: David Bastviken Feb 1997
Z: John Chambers <jc@trillian.mit.edu>
M: 3/4
L: 1/8
K: D
|: "D"D>F Ad fa | ag/f/ "A7"gf/e/ "D"fa |  D>F Ad fa | ag/f/ "A7"e4 :|
|: "D"f>a gf "(A)"ed | "A7"cd ed cB/A/ | "D"f>a gf "(A)"ed | "A7"cd/e/ A4 | "D"f>a "G"Bc "D"de | "A7"ed/c/ "D"d4 :|

%%sep 1 1 500

